!!!COM: Mozart, Wolfgang Amadeus
!!!OTL: Musikalische Würfelspiele, Kontre-Tänze
!!!SCA: K<sup>6</sup> Anh. C30.01 (K<sup>3</sup> Anh. 294d)
**kern	**kern
*staff2	*staff2
*clefF4	*clefG2
*M2/4	*M2/4
*MM110	*MM110
*>[A,A1,A,A2,B]	*>[A,A1,A,A2,B]
*>norep[A,A2,B]	*>norep[A,A2,B]
*>A	*>A
=7	=7
4C	8cc
.	8cc
4C	8ee
.	8ee
=64	=64
4C	16gg
.	16ee
.	16ff
.	16dd
4r	16cc
.	16gg
.	16ee
.	16cc
=131	=131
16GG	8ff
16D	.
16BB	4dd
16D	.
16GG	.
16D	.
16BB	8b
16D	.
=121	=121
4C	8cc
.	16ee
.	16cc
4GG	4g
=111	=111
4D	8d
.	16f#
.	16a
4D	8dd
.	8ff#
=156	=156
4G	8gg
.	4bb
4r	.
.	16gg
.	16dd
=73	=73
4C	8ee
.	8gg
4D	8ff#
.	8aa
=44	=44
*>A1	*>A1
4GG	4g 4b 4gg
16G	4r
16F	.
16E	.
16D	.
=44:|!	=44:|!
*>A2	*>A2
4GG	4g 4b 4gg
16GG	4r
16AA	.
16BB	.
16C#	.
=144||	=144||
*>B	*>B
4D	8d
.	16f#
.	16a
4D	8dd
.	8ff#
=55	=55
16BB	8gg
16D	.
16G	8gg
16D	.
8BB	8bb
8BB	8gg
=119	=119
4C	8gg
.	8ccc
4C	8gg
.	8ee
=141	=141
4G	8dd
.	8b
4GG	8g
.	8b
=128	=128
16C	8g
16G	.
16E	4cc
16G	.
16C	.
16G	.
16E	8ee
16G	.
=80	=80
4C	8cc
.	8ee
4r	8ee
.	8ee
=129	=129
4G	8ff
.	8dd
4GG	8b
.	8g
=98	=98
4C	4cc
4CC	4c
==	==
*-	*-
